icons/lines/device-message.svg

<svg xmlns="http://www.w3.org/2000/svg" width="24" height="24" viewBox="0 0 24 24" fill="none" stroke="currentColor" stroke-width="2" stroke-linecap="round" stroke-linejoin="round">
  <path d="M11 18.4V22" />
  <path d="M12.895 7.25h.01" />
  <path d="M13.26 14.33a.655.655 0 0 1-1.01-.54" />
  <path d="M15.696 7.25h.01" />
  <path d="M18.496 7.25h.01" />
  <path d="M20 12.2a3.9 3.9 0 0 1-1.25.2h-2.6l-2.89 1.93a.655.655 0 0 1-1.01-.54V12.4c-.97 0-1.79-.32-2.36-.89S9 10.12 9 9.15v-3.9A3.9 3.9 0 0 1 9.2 4H6.5C3.8 4 2 5.35 2 8.5v5.4c0 3.15 1.8 4.5 4.5 4.5h9c2.7 0 4.5-1.35 4.5-4.5z" />
  <path d="M7.4 22h7.2" />
  <path d="M9 5.25A3.9 3.9 0 0 1 9.2 4c.44-1.24 1.56-2 3.05-2h6.5C20.7 2 22 3.3 22 5.25v3.9c0 1.49-.76 2.61-2 3.05a3.9 3.9 0 0 1-1.25.2" />
  <path d="M9 9.15c0 .97.32 1.79.89 2.36s1.39.89 2.36.89" />
</svg>

<svg xmlns="http://www.w3.org/2000/svg" width="24" height="24" viewBox="0 0 24 24" fill="none" stroke="currentColor" stroke-width="2" stroke-linecap="round" stroke-linejoin="round" >
  <path d="M20 12.2V13.9C20 17.05 18.2 18.4 15.5 18.4H6.5C3.8 18.4 2 17.05 2 13.9V8.5C2 5.35 3.8 4 6.5 4H9.2C9.07 4.38 9 4.8 9 5.25V9.15002C9 10.12 9.32 10.94 9.89 11.51C10.46 12.08 11.28 12.4 12.25 12.4V13.79C12.25 14.3 12.83 14.61 13.26 14.33L16.15 12.4H18.75C19.2 12.4 19.62 12.33 20 12.2Z" stroke-miterlimit="10"/>
  <path d="M22 5.25V9.15002C22 10.64 21.24 11.76 20 12.2C19.62 12.33 19.2 12.4 18.75 12.4H16.15L13.26 14.33C12.83 14.61 12.25 14.3 12.25 13.79V12.4C11.28 12.4 10.46 12.08 9.89 11.51C9.32 10.94 9 10.12 9 9.15002V5.25C9 4.8 9.07 4.38 9.2 4C9.64 2.76 10.76 2 12.25 2H18.75C20.7 2 22 3.3 22 5.25Z" stroke-miterlimit="10"/>
  <path d="M7.3999 22H14.5999" stroke-miterlimit="10"/>
  <path d="M11 18.4V22" stroke-miterlimit="10"/>
  <path d="M18.4955 7.25H18.5045"/>
  <path d="M15.6957 7.25H15.7047"/>
  <path d="M12.8954 7.25H12.9044"/>
  </svg>
